X:5304
T:Push about the Jorum
O:england
M:2/4
L:1/8
N:version of the manx tune 'Betsy Baker' in KV
K:G
g | dB AG | FA Ac | BG Bd | g2 fe | \
dG BG | FA Ac | EG FA | G2 G:|
|:d | gg fg | af dd | gg ff | a2 dd |\
gg fg | af ed | e/2f/2g fa | g3 :|


